icons/svgs/plus-outline.svg

<svg width="24" height="24" viewBox="0 0 24 24" fill="none" xmlns="http://www.w3.org/2000/svg">
<path d="M12.9375 4.8125V11.0625H19.1875C19.6953 11.0625 20.125 11.4922 20.125 12C20.125 12.5469 19.6953 12.9375 19.1875 12.9375H12.9375V19.1875C12.9375 19.7344 12.5078 20.125 12 20.125C11.4531 20.125 11.0625 19.7344 11.0625 19.1875V12.9375H4.8125C4.26562 12.9375 3.875 12.5469 3.875 12C3.875 11.4922 4.26562 11.0625 4.8125 11.0625H11.0625V4.8125C11.0625 4.30469 11.4531 3.875 12 3.875C12.5078 3.875 12.9375 4.30469 12.9375 4.8125Z" fill="black"/>
</svg>

<svg xmlns="http://www.w3.org/2000/svg" width="24" height="24" fill="currentColor" class="icon-plus-outline" viewBox="0 0 24 24">
  <mask id="a" width="18" height="18" x="3" y="3" maskUnits="userSpaceOnUse" style="mask-type:alpha">
    <path d="M12.938 4.813v6.25h6.25a.95.95 0 0 1 .937.937c0 .547-.43.938-.937.938h-6.25v6.25c0 .546-.43.937-.938.937-.547 0-.937-.39-.937-.937v-6.25h-6.25c-.547 0-.938-.391-.938-.938 0-.508.39-.937.938-.937h6.25v-6.25c0-.508.39-.938.937-.938a.95.95 0 0 1 .938.938"/>
  </mask>
  <g mask="url(#a)">
    <path d="M0 0h24v24H0z"/>
  </g>
</svg>
